flaticon/dialogue/document.svg

<svg xmlns="http://www.w3.org/2000/svg" width="32" height="32" viewBox="0 0 24 24">
    <path d="M 2.398438 0 L 2.398438 24 L 21.601562 24 L 21.601562 0 Z M 20.46875 0.800781 L 20.421875 0.890625 C 20.320312 1.089844 20.398438 1.328125 20.59375 1.429688 C 20.652344 1.460938 20.714844 1.476562 20.777344 1.476562 C 20.785156 1.476562 20.792969 1.472656 20.800781 1.472656 L 20.800781 22.671875 C 20.652344 22.601562 20.472656 22.625 20.347656 22.746094 C 20.226562 22.871094 20.203125 23.050781 20.273438 23.199219 L 3.199219 23.199219 L 3.199219 1.90625 L 3.503906 2.496094 C 3.574219 2.632812 3.714844 2.710938 3.859375 2.710938 C 3.921875 2.710938 3.984375 2.699219 4.042969 2.667969 C 4.238281 2.566406 4.316406 2.328125 4.214844 2.128906 L 3.851562 1.417969 C 3.75 1.222656 3.507812 1.144531 3.3125 1.246094 C 3.265625 1.269531 3.230469 1.300781 3.199219 1.335938 L 3.199219 0.800781 Z M 20.46875 0.800781"/>
    <path d="M17.296875 7.832031C17.355469 7.863281 17.421875 7.878906 17.480469 7.878906 17.625 7.878906 17.765625 7.796875 17.839844 7.660156L18.203125 6.949219C18.304688 6.753906 18.226562 6.511719 18.03125 6.410156 17.835938 6.308594 17.59375 6.386719 17.492188 6.582031L17.125 7.292969C17.023438 7.492188 17.101562 7.730469 17.296875 7.832031zM19.496094 3.566406C19.554688 3.59375 19.617188 3.609375 19.679688 3.609375 19.824219 3.609375 19.964844 3.53125 20.035156 3.390625L20.402344 2.679688C20.5 2.484375 20.425781 2.242188 20.226562 2.140625 20.03125 2.039062 19.789062 2.117188 19.6875 2.316406L19.324219 3.027344C19.222656 3.222656 19.300781 3.464844 19.496094 3.566406zM18.398438 5.699219C18.457031 5.730469 18.519531 5.742188 18.578125 5.742188 18.726562 5.742188 18.863281 5.664062 18.9375 5.527344L19.300781 4.816406C19.402344 4.617188 19.324219 4.378906 19.128906 4.277344 18.933594 4.175781 18.691406 4.253906 18.589844 4.449219L18.226562 5.160156C18.125 5.355469 18.203125 5.597656 18.398438 5.699219zM15.390625 8.398438L16.191406 8.398438C16.414062 8.398438 16.589844 8.222656 16.589844 8 16.589844 7.777344 16.414062 7.601562 16.191406 7.601562L15.390625 7.601562C15.171875 7.601562 14.992188 7.777344 14.992188 8 14.992188 8.222656 15.171875 8.398438 15.390625 8.398438zM6.636719 8.355469L6.753906 8.398438 7.601562 8.398438C7.820312 8.398438 8 8.222656 8 8 8 7.777344 7.820312 7.601562 7.601562 7.601562L6.878906 7.601562C6.699219 7.5625 6.515625 7.65625 6.4375 7.828125 6.34375 8.03125 6.4375 8.265625 6.636719 8.355469zM9.199219 8.398438L10 8.398438C10.222656 8.398438 10.398438 8.222656 10.398438 8 10.398438 7.777344 10.222656 7.601562 10 7.601562L9.199219 7.601562C8.980469 7.601562 8.800781 7.777344 8.800781 8 8.800781 8.222656 8.980469 8.398438 9.199219 8.398438zM5.335938 6.054688L5.699219 6.765625C5.773438 6.902344 5.910156 6.980469 6.058594 6.980469 6.117188 6.980469 6.179688 6.96875 6.238281 6.9375 6.4375 6.835938 6.511719 6.59375 6.414062 6.398438L6.046875 5.6875C5.945312 5.492188 5.703125 5.414062 5.507812 5.511719 5.3125 5.613281 5.234375 5.855469 5.335938 6.054688zM4.238281 3.917969L4.601562 4.628906C4.671875 4.769531 4.8125 4.847656 4.957031 4.847656 5.019531 4.847656 5.082031 4.832031 5.140625 4.804688 5.335938 4.703125 5.414062 4.460938 5.3125 4.261719L4.949219 3.550781C4.847656 3.355469 4.605469 3.277344 4.410156 3.378906 4.210938 3.480469 4.136719 3.722656 4.238281 3.917969zM19.21875 21.050781C19.058594 20.894531 18.808594 20.894531 18.652344 21.050781 18.496094 21.207031 18.496094 21.460938 18.652344 21.617188L19.21875 22.183594C19.292969 22.261719 19.398438 22.300781 19.5 22.300781 19.601562 22.300781 19.703125 22.261719 19.78125 22.183594 19.9375 22.027344 19.9375 21.773438 19.78125 21.617188zM5.984375 19.851562L5.417969 20.417969C5.261719 20.574219 5.261719 20.828125 5.417969 20.984375 5.496094 21.0625 5.597656 21.101562 5.699219 21.101562 5.800781 21.101562 5.90625 21.0625 5.984375 20.984375L6.546875 20.417969C6.703125 20.261719 6.703125 20.007812 6.546875 19.851562 6.390625 19.695312 6.140625 19.695312 5.984375 19.851562zM10.847656 19.199219L10.046875 19.199219C9.828125 19.199219 9.648438 19.378906 9.648438 19.601562 9.648438 19.820312 9.828125 20 10.046875 20L10.847656 20C11.070312 20 11.246094 19.820312 11.246094 19.601562 11.246094 19.378906 11.070312 19.199219 10.847656 19.199219zM13.246094 19.199219L12.449219 19.199219C12.226562 19.199219 12.046875 19.378906 12.046875 19.601562 12.046875 19.820312 12.226562 20 12.449219 20L13.246094 20C13.46875 20 13.648438 19.820312 13.648438 19.601562 13.648438 19.378906 13.46875 19.199219 13.246094 19.199219zM4.285156 21.546875L3.71875 22.113281C3.5625 22.269531 3.5625 22.523438 3.71875 22.679688 3.796875 22.757812 3.902344 22.796875 4.003906 22.796875 4.105469 22.796875 4.207031 22.757812 4.285156 22.679688L4.851562 22.113281C5.007812 21.957031 5.007812 21.703125 4.851562 21.546875 4.695312 21.390625 4.441406 21.390625 4.285156 21.546875zM7.246094 19.601562C7.246094 19.820312 7.425781 20 7.648438 20L8.449219 20C8.667969 20 8.847656 19.820312 8.847656 19.601562 8.847656 19.378906 8.667969 19.199219 8.449219 19.199219L7.648438 19.199219C7.425781 19.199219 7.246094 19.378906 7.246094 19.601562zM17.519531 20.484375C17.597656 20.5625 17.699219 20.601562 17.804688 20.601562 17.90625 20.601562 18.007812 20.5625 18.085938 20.484375 18.242188 20.328125 18.242188 20.078125 18.085938 19.921875L17.519531 19.355469C17.363281 19.199219 17.109375 19.199219 16.953125 19.355469 16.796875 19.511719 16.796875 19.761719 16.953125 19.917969zM14.847656 20L15.648438 20C15.871094 20 16.046875 19.820312 16.046875 19.601562 16.046875 19.378906 15.871094 19.199219 15.648438 19.199219L14.847656 19.199219C14.625 19.199219 14.449219 19.378906 14.449219 19.601562 14.449219 19.820312 14.625 20 14.847656 20zM14.847656 20"/>
    <path d="M 10.457031 6.605469 L 11.535156 8.398438 L 10.457031 10.195312 C 10.363281 10.351562 10.394531 10.542969 10.515625 10.671875 C 10.199219 11.027344 10 11.488281 10 12 C 10 13.101562 10.898438 14 12 14 C 13.101562 14 14 13.101562 14 12 C 14 11.488281 13.800781 11.027344 13.484375 10.671875 C 13.605469 10.542969 13.636719 10.351562 13.542969 10.195312 L 12.464844 8.398438 L 13.542969 6.605469 C 13.636719 6.449219 13.605469 6.253906 13.484375 6.128906 C 13.800781 5.773438 14 5.3125 14 4.800781 C 14 3.695312 13.101562 2.800781 12 2.800781 C 10.898438 2.800781 10 3.695312 10 4.800781 C 10 5.3125 10.199219 5.773438 10.515625 6.128906 C 10.394531 6.253906 10.363281 6.449219 10.457031 6.605469 Z M 12 13.199219 C 11.339844 13.199219 10.800781 12.660156 10.800781 12 C 10.800781 11.339844 11.339844 10.800781 12 10.800781 C 12.660156 10.800781 13.199219 11.339844 13.199219 12 C 13.199219 12.660156 12.660156 13.199219 12 13.199219 Z M 12.542969 10.085938 C 12.371094 10.035156 12.191406 10 12 10 C 11.808594 10 11.628906 10.035156 11.457031 10.085938 L 12 9.175781 Z M 11.457031 6.714844 C 11.628906 6.765625 11.808594 6.800781 12 6.800781 C 12.191406 6.800781 12.371094 6.765625 12.542969 6.714844 L 12 7.621094 Z M 12 3.601562 C 12.660156 3.601562 13.199219 4.136719 13.199219 4.800781 C 13.199219 5.460938 12.660156 6 12 6 C 11.339844 6 10.800781 5.460938 10.800781 4.800781 C 10.800781 4.136719 11.339844 3.601562 12 3.601562 Z M 12 3.601562"/>
</svg>

<svg xmlns="http://www.w3.org/2000/svg" width="32" height="32" viewBox="0 0 24 24">
    <path d="M2.398 0v24h19.204V0zm18.07.8l-.046.09a.4.4 0 0 0 .172.54.389.389 0 0 0 .183.047c.008 0 .016-.004.024-.004v21.199a.4.4 0 0 0-.453.074.4.4 0 0 0-.075.453H3.2V1.906l.305.59a.4.4 0 0 0 .355.215.4.4 0 0 0 .355-.582l-.362-.711a.401.401 0 0 0-.54-.172.372.372 0 0 0-.113.09V.8zm0 0"/>
    <path d="M17.297 7.832a.4.4 0 0 0 .183.047.413.413 0 0 0 .36-.219l.363-.71a.401.401 0 0 0-.172-.54.401.401 0 0 0-.539.172l-.367.711a.4.4 0 0 0 .172.539zm0 0M19.496 3.566a.436.436 0 0 0 .184.043.396.396 0 0 0 .355-.218l.367-.711a.403.403 0 0 0-.175-.54.4.4 0 0 0-.54.176l-.363.711a.401.401 0 0 0 .172.54zm0 0M18.398 5.7a.405.405 0 0 0 .54-.172l.363-.712a.4.4 0 1 0-.711-.367l-.363.711a.401.401 0 0 0 .171.54zm0 0M15.39 8.398h.801A.395.395 0 0 0 16.59 8a.395.395 0 0 0-.399-.398h-.8a.398.398 0 1 0 0 .796zm0 0M6.637 8.355l.117.043h.848a.398.398 0 1 0 0-.796h-.723a.394.394 0 0 0-.441.226.396.396 0 0 0 .199.527zm0 0M9.2 8.398h.8A.395.395 0 0 0 10.398 8 .395.395 0 0 0 10 7.602h-.8a.398.398 0 1 0 0 .796zm0 0M5.336 6.055l.363.71a.405.405 0 0 0 .54.173.403.403 0 0 0 .175-.54l-.367-.71a.406.406 0 0 0-.54-.176.405.405 0 0 0-.171.543zm0 0M4.238 3.918l.364.71c.07.142.21.22.355.22a.436.436 0 0 0 .184-.043.405.405 0 0 0 .171-.543L4.95 3.55a.401.401 0 0 0-.539-.172.398.398 0 0 0-.172.539zm0 0M19.219 21.05a.4.4 0 0 0-.567.567l.567.567a.396.396 0 0 0 .563 0 .4.4 0 0 0 0-.567zm0 0M5.984 19.852l-.566.566a.4.4 0 0 0 .566.566l.563-.566a.4.4 0 0 0 0-.566.396.396 0 0 0-.563 0zm0 0M10.848 19.2h-.801a.401.401 0 0 0 0 .8h.8c.223 0 .4-.18.4-.398a.398.398 0 0 0-.4-.403zm0 0M13.246 19.2h-.797a.401.401 0 0 0 0 .8h.797a.401.401 0 1 0 0-.8zm0 0M4.285 21.547l-.566.566a.4.4 0 0 0 .566.567l.567-.567a.4.4 0 0 0-.567-.566zm0 0M7.246 19.602c0 .218.18.398.402.398h.801a.4.4 0 0 0 0-.8h-.8a.402.402 0 0 0-.403.402zm0 0M17.52 20.484a.399.399 0 0 0 .566 0 .396.396 0 0 0 0-.562l-.566-.567a.4.4 0 0 0-.567 0 .396.396 0 0 0 0 .563zm0 0M14.848 20h.8c.223 0 .399-.18.399-.398a.398.398 0 0 0-.399-.403h-.8a.398.398 0 0 0-.399.403c0 .218.176.398.399.398zm0 0"/>
    <path d="M10.457 6.605l1.078 1.793-1.078 1.797a.395.395 0 0 0 .059.477A1.99 1.99 0 0 0 10 12c0 1.102.898 2 2 2 1.102 0 2-.898 2-2 0-.512-.2-.973-.516-1.328a.395.395 0 0 0 .059-.477l-1.078-1.797 1.078-1.793a.395.395 0 0 0-.059-.476A1.99 1.99 0 0 0 14 4.8c0-1.106-.898-2-2-2-1.102 0-2 .894-2 2 0 .511.2.972.516 1.328a.395.395 0 0 0-.059.476zM12 13.2c-.66 0-1.2-.539-1.2-1.199s.54-1.2 1.2-1.2c.66 0 1.2.54 1.2 1.2 0 .66-.54 1.2-1.2 1.2zm.543-3.113A1.903 1.903 0 0 0 12 10c-.191 0-.371.035-.543.086l.543-.91zm-1.086-3.371c.172.05.352.086.543.086.191 0 .371-.035.543-.086L12 7.62zM12 3.602A1.2 1.2 0 1 1 12 6a1.2 1.2 0 0 1 0-2.4zm0 0"/>
</svg>
